packages/components/src/telekom/icons/home/light-bulb/default.svg

<?xml version="1.0" encoding="UTF-8"?>
<svg width="24px" height="24px" viewBox="0 0 24 24" version="1.1" xmlns="http://www.w3.org/2000/svg" xmlns:xlink="http://www.w3.org/1999/xlink">
    <title>/svg/icon/home/light-bulb/default</title>
    <g id="icon/home/light-bulb/default" stroke="none" stroke-width="1" fill="none" fill-rule="evenodd">
        <path d="M14.865,16.4185 C14.659,16.757 14.4885,17.1195 14.3545,17.5 L9.667,17.5 C9.535,17.1255 9.366,16.7685 9.1605,16.4335 C8.5225,15.3955 7.9835,15.289 7.422,14.0165 C7.1355,13.367 6.99,12.658 7.0005,11.926 C7.038,9.3115 9.1935,7.103 11.804,7.004 C13.1945,6.9485 14.4795,7.447 15.467,8.3975 C16.4555,9.349 17,10.6285 17,12 C17,12.6535 16.8745,13.2895 16.6355,13.8795 C16.0915,15.221 15.5065,15.364 14.865,16.4185 M11.7475,5.505 C8.352,5.634 5.5495,8.505 5.5005,11.9045 C5.488,12.7805 5.6475,13.6315 5.963,14.4195 C6.4385,15.606 7.073,16.208 7.588,16.8405 C8.1035,17.4725 8.5,18.136 8.5,19.4455 L8.5,21.2755 L10.0335,21.833 C10.193,22.778 11.0095,23.5 12,23.5 C12.9905,23.5 13.807,22.778 13.9665,21.833 L15.5,21.2755 L15.5,19.589 C15.5,18.245 15.8735,17.5405 16.366,16.906 C16.858,16.271 17.469,15.706 17.943,14.6395 C18.308,13.8185 18.5,12.9225 18.5,12 C18.5,10.217 17.7925,8.5535 16.5075,7.3165 C15.223,6.0805 13.53,5.437 11.7475,5.505 M22.75,11.25 L20.75,11.25 C20.336,11.25 20,11.5855 20,12 C20,12.4145 20.336,12.75 20.75,12.75 L22.75,12.75 C23.164,12.75 23.5,12.4145 23.5,12 C23.5,11.5855 23.164,11.25 22.75,11.25 M20.132,3.8685 C19.839,3.5755 19.3645,3.576 19.0715,3.8685 L17.657,5.2825 C17.364,5.5755 17.364,6.0505 17.657,6.3435 C17.8035,6.49 17.9955,6.563 18.1875,6.563 C18.3795,6.563 18.5715,6.49 18.718,6.3435 L20.1325,4.9295 C20.425,4.636 20.425,4.1615 20.132,3.8685 M12,4 C12.414,4 12.75,3.6645 12.75,3.25 L12.75,1.25 C12.75,0.8355 12.414,0.5 12,0.5 C11.586,0.5 11.25,0.8355 11.25,1.25 L11.25,3.25 C11.25,3.6645 11.586,4 12,4 M3.25,11.25 L1.25,11.25 C0.836,11.25 0.5,11.5855 0.5,12 C0.5,12.4145 0.836,12.75 1.25,12.75 L3.25,12.75 C3.664,12.75 4,12.4145 4,12 C4,11.5855 3.664,11.25 3.25,11.25 M6.3435,6.343 C6.6365,6.05 6.6365,5.575 6.3435,5.282 L4.9285,3.868 C4.6355,3.5755 4.161,3.5755 3.868,3.868 C3.575,4.1605 3.575,4.636 3.868,4.929 L5.2825,6.343 C5.429,6.489 5.621,6.5625 5.813,6.5625 C6.005,6.5625 6.197,6.4895 6.3435,6.343" id="Icon" fill="#000000"></path>
    </g>
</svg>

<svg width="24" height="24" xmlns="http://www.w3.org/2000/svg"><path d="M14.865 16.419a5.757 5.757 0 00-.51 1.081H9.666a5.591 5.591 0 00-.506-1.067c-.638-1.037-1.177-1.144-1.739-2.416A4.988 4.988 0 017 11.926c.037-2.614 2.192-4.823 4.803-4.922a4.928 4.928 0 013.663 1.394A4.959 4.959 0 0117 12c0 .653-.125 1.29-.364 1.88-.544 1.341-1.13 1.484-1.771 2.539M11.748 5.505c-3.396.129-6.198 3-6.247 6.4a6.502 6.502 0 00.462 2.514c.476 1.187 1.11 1.789 1.625 2.421.516.633.912 1.296.912 2.605v1.83l1.534.558A1.995 1.995 0 0012 23.5c.99 0 1.807-.722 1.966-1.667l1.534-.557v-1.687c0-1.344.373-2.048.866-2.683.492-.635 1.103-1.2 1.577-2.266A6.486 6.486 0 0018.5 12a6.447 6.447 0 00-1.992-4.684 6.456 6.456 0 00-4.76-1.811M22.75 11.25h-2a.75.75 0 100 1.5h2a.75.75 0 100-1.5m-2.618-7.381a.75.75 0 00-1.06 0l-1.415 1.413a.75.75 0 101.061 1.061l1.415-1.413a.75.75 0 00-.001-1.061M12 4a.75.75 0 00.75-.75v-2a.75.75 0 10-1.5 0v2c0 .414.336.75.75.75m-8.75 7.25h-2a.75.75 0 100 1.5h2a.75.75 0 100-1.5m3.093-4.907a.75.75 0 000-1.061L4.928 3.868a.75.75 0 00-1.06 1.061l1.414 1.414a.75.75 0 001.061 0" fill-rule="evenodd"/></svg>
